X:1
T:Biddy The Bold Wife
R:jig
M:6/8
L:1/8
K:A
|:EAc ~e2f|ecA ~a2f|ecA EAc|~d2d BAF|
|EAc ~e2f|ecA ~a2f|ecA EAc|1 ~B2B A2F:|2 ~B2B Aag|]
|:~f2f fec|eaa ~a2f|ecf ecf|eAB cde|
|~f2f fec|eaa ~a2f|ecA EAc|1 ~B2B Aag:|2 ~B2B A2F|]